X:5323
T:Quadrill. CJF.068
O:england
M:6/8
L:1/8
Q:120
S: C.J.Fox MS, 1829/33, Beverley,E.Yorks.
R:Quadrille
A:East Yorkshire
B:Kidson Coll.Mitchell Lib.M1805
N:Penultimate note should be A3. - PJH.
K:C
ef|g2c' c'ba|g3e2c|d2de2e|g2f def|g2""c'\
c'ba|g3e2d|dfag2B|c3zh||Bc|d2g ^fef|
g2b d'2d'|d'c'b bag|g2^f c'af|dedd2c'|b3ec'a|\
g2g ^fef|g3zef|g2c' c'ba|g3e2c|d2de2e|
g2f def|g2c' c'ba|g3e2c|dfag2B|c3z||ec|\
A2a^g2a|e2c ABc|d2ec2d|c2^G Eec|
A2a^g2a|e2cf2d|ecA dB" D.Capo"^G|A2A||


